communes/3218.svg

<?xml version="1.0" encoding="UTF-8" standalone="no"?>
<!-- Created with Inkscape (http://www.inkscape.org/) -->

<svg
   xmlns:dc="http://purl.org/dc/elements/1.1/"
   xmlns:cc="http://creativecommons.org/ns#"
   xmlns:rdf="http://www.w3.org/1999/02/22-rdf-syntax-ns#"
   xmlns:svg="http://www.w3.org/2000/svg"
   xmlns="http://www.w3.org/2000/svg"
   xmlns:sodipodi="http://sodipodi.sourceforge.net/DTD/sodipodi-0.dtd"
   xmlns:inkscape="http://www.inkscape.org/namespaces/inkscape"
   version="1.0"
   width="208.86046"
   height="244.65999"
   id="svg2780"
   inkscape:version="0.92.4 (5da689c313, 2019-01-14)"
   sodipodi:docname="Tübach-blazon.svg">
  <metadata
     id="metadata27">
    <rdf:RDF>
      <cc:Work
         rdf:about="">
        <dc:format>image/svg+xml</dc:format>
        <dc:type
           rdf:resource="http://purl.org/dc/dcmitype/StillImage" />
        <dc:title></dc:title>
      </cc:Work>
    </rdf:RDF>
  </metadata>
  <sodipodi:namedview
     pagecolor="#ffffff"
     bordercolor="#666666"
     borderopacity="1"
     objecttolerance="10"
     gridtolerance="10"
     guidetolerance="10"
     inkscape:pageopacity="0"
     inkscape:pageshadow="2"
     inkscape:window-width="3236"
     inkscape:window-height="1417"
     id="namedview25"
     showgrid="false"
     inkscape:zoom="2.8284272"
     inkscape:cx="263.9258"
     inkscape:cy="191.70327"
     inkscape:window-x="-8"
     inkscape:window-y="-8"
     inkscape:window-maximized="1"
     inkscape:current-layer="svg2780"
     inkscape:measure-start="104.255,149.787"
     inkscape:measure-end="104.255,126.383"
     showguides="true"
     inkscape:object-paths="true"
     inkscape:snap-intersection-paths="true"
     inkscape:snap-global="true" />
  <defs
     id="defs2782" />
  <path
     inkscape:connector-curvature="0"
     style="fill:#ffffff;fill-opacity:1;fill-rule:evenodd;stroke:#000000;stroke-width:1.99999988;stroke-linecap:butt;stroke-miterlimit:4;stroke-dashoffset:0;stroke-opacity:1"
     id="path4212"
     d="m 1,1 3.761095,158.00304 c 2.686489,112.85918 196.651755,112.85918 199.338255,0 L 207.86045,1 Z" />
  <path
     id="path11099-1-5-5-2-0-1"
     style="opacity:1;fill:#1b63c6;fill-opacity:1;stroke:#000000;stroke-width:1;stroke-miterlimit:8;stroke-dasharray:none;stroke-dashoffset:4.57999992;stroke-opacity:1"
     d="m 180.54131,215.43707 c -0.62776,-4.83788 -2.45837,-9.56797 -6.44518,-14.07435 -14.58672,-16.48769 -46.61309,3.06519 -64.94796,-17.74332 -18.182192,-20.63527 5.11707,-50.13869 -9.426084,-66.66493 C 85.166662,100.41429 53.108988,120.01965 34.774137,99.211144 16.591927,78.575894 40.011142,49.133059 25.348037,32.546224 18.480426,24.777615 10.181392,23.288522 1.5031981,23.351398 L 1.0000014,1 56.044718,1.1103309 c 0.788804,0.7102729 1.561396,1.4906171 2.31632,2.3473919 18.334859,20.8085032 -5.154629,50.0979032 9.42608,66.6649012 14.516007,16.493482 46.765762,-2.89192 64.947962,17.74333 18.33486,20.808516 -5.12916,50.202496 9.4261,66.664916 14.59329,16.50543 43.03184,0.0614 61.1935,14.19091 -2.36604,24.62982 -15.13184,37.79318 -22.81337,46.71529 z"
     inkscape:connector-curvature="0"
     sodipodi:nodetypes="cssssscccsssscc" />
  <path
     style="opacity:1;fill:#cc2918;fill-opacity:1;stroke:none;stroke-width:1;stroke-miterlimit:8;stroke-dasharray:none;stroke-dashoffset:4.57999992;stroke-opacity:1"
     d="m 158.2785,27.347488 8.2215,0.31251 v 34.124995 c 0,3.752785 3.22509,7.5 9.375,7.5 v 3.272027 c 1.85302,-4.006654 4.36599,-8.356966 5.55905,-8.862935 C 185.58027,61.935699 189,56.953488 189,53.909993 c 0,-1.213619 -1.58427,-1.762445 -2.31152,-1.868932 0.4264,1.121625 0.61495,1.681736 0.26647,2.812998 -1.85084,6.008403 -9.57995,5.816853 -9.57995,0.522287 V 27.347488 h 7.375 l 5.12398,-8.875 H 177.375 V 8.4863294 L 166.5,14.540931 v 3.931557 h -3.09752 z"
     id="path11299"
     inkscape:connector-curvature="0"
     sodipodi:nodetypes="cccccsscscccccccccc" />
  <path
     inkscape:connector-curvature="0"
     style="fill:none;fill-opacity:1;fill-rule:evenodd;stroke:#000000;stroke-width:1.99999988;stroke-linecap:butt;stroke-miterlimit:4;stroke-dashoffset:0;stroke-opacity:1"
     id="path4212-0"
     d="M 1,0.99999834 4.761095,159.00304 c 2.686489,112.85918 196.651755,112.85918 199.338255,0 l 3.7611,-158.00304166 z" />
</svg>

<?xml version="1.0" encoding="UTF-8"?>
<svg version="1.0" viewBox="0 0 208.86 244.66" xmlns="http://www.w3.org/2000/svg" xmlns:cc="http://creativecommons.org/ns#" xmlns:dc="http://purl.org/dc/elements/1.1/" xmlns:rdf="http://www.w3.org/1999/02/22-rdf-syntax-ns#">
<metadata>
<rdf:RDF>
<cc:Work rdf:about="">
<dc:format>image/svg+xml</dc:format>
<dc:type rdf:resource="http://purl.org/dc/dcmitype/StillImage"/>
<dc:title/>
</cc:Work>
</rdf:RDF>
</metadata>
<path d="m1 1 3.7611 158c2.6865 112.86 196.65 112.86 199.34 0l3.7611-158z" fill="#fff" fill-rule="evenodd" stroke="#000" stroke-width="2"/>
<path d="m180.54 215.44c-0.62776-4.8379-2.4584-9.568-6.4452-14.074-14.587-16.488-46.613 3.0652-64.948-17.743-18.182-20.635 5.1171-50.139-9.4261-66.665-14.555-16.54-46.613 3.0652-64.948-17.743-18.182-20.635 5.237-50.078-9.4261-66.665-6.8676-7.7686-15.167-9.2577-23.845-9.1948l-0.5032-22.351 55.045 0.11033c0.7888 0.71027 1.5614 1.4906 2.3163 2.3474 18.335 20.809-5.1546 50.098 9.4261 66.665 14.516 16.493 46.766-2.8919 64.948 17.743 18.335 20.809-5.1292 50.202 9.4261 66.665 14.593 16.505 43.032 0.0614 61.194 14.191-2.366 24.63-15.132 37.793-22.813 46.715z" fill="#1b63c6" stroke="#000" stroke-dashoffset="4.58" stroke-miterlimit="8"/>
<path d="m158.28 27.347 8.2215 0.31251v34.125c0 3.7528 3.2251 7.5 9.375 7.5v3.272c1.853-4.0067 4.366-8.357 5.559-8.8629 4.1462-1.7584 7.566-6.7406 7.566-9.7841 0-1.2136-1.5843-1.7624-2.3115-1.8689 0.4264 1.1216 0.61495 1.6817 0.26647 2.813-1.8508 6.0084-9.58 5.8169-9.58 0.52229v-28.029h7.375l5.124-8.875h-12.499v-9.9862l-10.875 6.0546v3.9316h-3.0975z" fill="#cc2918"/>
<path d="m1 1 3.7611 158c2.6865 112.86 196.65 112.86 199.34 0l3.7611-158z" fill="none" stroke="#000" stroke-width="2"/>
</svg>
